resources/svg/minor-delete.svg

<svg xmlns="http://www.w3.org/2000/svg" viewBox="0 0 20 20" fill="currentColor"><path d="M8 3.994c0-1.101.895-1.994 2-1.994s2 .893 2 1.994h4c.552 0 1 .446 1 .997a1 1 0 0 1-1 .997h-12c-.552 0-1-.447-1-.997s.448-.997 1-.997h4zm-3 10.514v-6.508h2v6.508a.5.5 0 0 0 .5.498h1.5v-7.006h2v7.006h1.5a.5.5 0 0 0 .5-.498v-6.508h2v6.508a2.496 2.496 0 0 1-2.5 2.492h-5c-1.38 0-2.5-1.116-2.5-2.492z"/></svg>

<svg xmlns="http://www.w3.org/2000/svg" viewBox="0 0 20 20" fill="currentColor"><path d="M8 3.994C8 2.893 8.895 2 10 2s2 .893 2 1.994h4c.552 0 1 .446 1 .997a1 1 0 0 1-1 .997H4c-.552 0-1-.447-1-.997s.448-.997 1-.997h4zM5 14.508V8h2v6.508a.5.5 0 0 0 .5.498H9V8h2v7.006h1.5a.5.5 0 0 0 .5-.498V8h2v6.508A2.496 2.496 0 0 1 12.5 17h-5C6.12 17 5 15.884 5 14.508z"/></svg>
